X:1
T: Miss Rose's Strathspey
T: Miss Rose
C:
R:Strathspey
Q: 128
K:A
M:4/4
L:1/16
|:e2|AAA2 c3A d3B e3c|((3d2e2f2) ((3e2d2c2) dB3 B3c|AAA2 c3A d3B e3c|dcBA G3B AAA2 A2e2|
AAA2 c3A d3B e3c|((3d2e2f2) ((3e2d2c2) dB3 B3c|AAA2 c3A d3B e3c|dcBA G3B AAA2 A2e2|
a3b a3b ec3 c3A|((3d2e2f2) ((3e2d2c2) d3B B3e|a3g a3g ec3 c3A|dcBA G3B AAA2 A3g|
((3a2b2a2) ((3g2a2g2) ((3f2g2f2) e3c|((3d2e2f2) ((3e2d2c2) d3B B3c|((3A2E2A2) ((3c2A2c2) ((3d2B2d2) ((3e2c2e2) |((3f2d2f2) ((3g2e2g2) aA3 A2:|
